images/spec.ts.svg

<?xml version="1.0" encoding="UTF-8" standalone="no"?>
<!-- Created with Inkscape (http://www.inkscape.org/) -->

<svg
   width="500"
   height="500"
   viewBox="0 0 500 500"
   version="1.1"
   id="svg1"
   inkscape:version="1.3.2 (091e20ef0f, 2023-11-25, custom)"
   sodipodi:docname="spec.ts.svg"
   xml:space="preserve"
   xmlns:inkscape="http://www.inkscape.org/namespaces/inkscape"
   xmlns:sodipodi="http://sodipodi.sourceforge.net/DTD/sodipodi-0.dtd"
   xmlns="http://www.w3.org/2000/svg"
   xmlns:svg="http://www.w3.org/2000/svg"><sodipodi:namedview
     id="namedview1"
     pagecolor="#505050"
     bordercolor="#eeeeee"
     borderopacity="1"
     inkscape:showpageshadow="0"
     inkscape:pageopacity="0"
     inkscape:pagecheckerboard="0"
     inkscape:deskcolor="#505050"
     inkscape:document-units="px"
     inkscape:zoom="1.0932428"
     inkscape:cx="268.92471"
     inkscape:cy="346.21769"
     inkscape:window-width="1362"
     inkscape:window-height="744"
     inkscape:window-x="0"
     inkscape:window-y="20"
     inkscape:window-maximized="1"
     inkscape:current-layer="layer2"
     showguides="true"><sodipodi:guide
       position="250.02518,350.60736"
       orientation="-0.99997769,0.0066803918"
       id="guide30"
       inkscape:locked="false" /><sodipodi:guide
       position="66.396728,247.89992"
       orientation="0,-1"
       id="guide53"
       inkscape:locked="false" /><sodipodi:guide
       position="221.35979,127.71308"
       orientation="0,-1"
       id="guide5"
       inkscape:locked="false" /><sodipodi:guide
       position="96.959247,117.65127"
       orientation="1,0"
       id="guide6"
       inkscape:locked="false" /><sodipodi:guide
       position="400.64293,118.56598"
       orientation="1,0"
       id="guide7"
       inkscape:locked="false" /></sodipodi:namedview><defs
     id="defs1"><inkscape:path-effect
       effect="mirror_symmetry"
       start_point="251.8258,19.235391"
       end_point="251.8258,476.11943"
       center_point="251.8258,247.67741"
       id="path-effect4"
       is_visible="true"
       lpeversion="1.2"
       lpesatellites=""
       mode="free"
       discard_orig_path="false"
       fuse_paths="true"
       oposite_fuse="false"
       split_items="false"
       split_open="false"
       link_styles="false" /><inkscape:path-effect
       effect="mirror_symmetry"
       start_point="251.8258,19.235394"
       end_point="251.8258,476.11943"
       center_point="251.8258,247.67741"
       id="path-effect2"
       is_visible="true"
       lpeversion="1.2"
       lpesatellites=""
       mode="free"
       discard_orig_path="false"
       fuse_paths="true"
       oposite_fuse="false"
       split_items="false"
       split_open="false"
       link_styles="false" /><linearGradient
       id="swatch61"
       inkscape:swatch="solid"><stop
         style="stop-color:#5090d0;stop-opacity:1;"
         offset="0"
         id="stop61" /></linearGradient><linearGradient
       id="swatch30"
       inkscape:swatch="solid"><stop
         style="stop-color:#f9f9f9;stop-opacity:1;"
         offset="0"
         id="stop30" /></linearGradient><inkscape:perspective
       sodipodi:type="inkscape:persp3d"
       inkscape:vp_x="44.06818 : 315.96746 : 1"
       inkscape:vp_y="0 : 1000 : 0"
       inkscape:vp_z="480.74134 : 298.68846 : 1"
       inkscape:persp3d-origin="250 : 166.66667 : 1"
       id="perspective17" /><inkscape:perspective
       sodipodi:type="inkscape:persp3d"
       inkscape:vp_x="44.06818 : 315.96746 : 1"
       inkscape:vp_y="0 : 1000 : 0"
       inkscape:vp_z="480.74134 : 298.68846 : 1"
       inkscape:persp3d-origin="250 : 166.66667 : 1"
       id="perspective17-2" /><inkscape:perspective
       sodipodi:type="inkscape:persp3d"
       inkscape:vp_x="44.06818 : 315.96746 : 1"
       inkscape:vp_y="0 : 1000 : 0"
       inkscape:vp_z="480.74134 : 298.68846 : 1"
       inkscape:persp3d-origin="250 : 166.66667 : 1"
       id="perspective17-0" /></defs><g
     inkscape:label="Layer 1"
     inkscape:groupmode="layer"
     id="layer1"
     style="display:none"><path
       id="path1"
       style="display:inline;opacity:1;fill:#3178c6;fill-opacity:1;stroke-width:33.2;stroke-linejoin:bevel;paint-order:markers fill stroke"
       d="m 187.34766,18.539062 c -8.21853,0 -14.83594,6.617422 -14.83594,14.835938 v 27.841797 c 0,8.218516 6.61741,14.835937 14.83594,14.835937 h 3.8164 L 109.17773,240.02539 A 218.62701,140.39372 0 0 0 30.035156,347.80859 218.62701,140.39372 0 0 0 248.66211,488.20312 218.62701,140.39372 0 0 0 467.28906,347.80859 218.62701,140.39372 0 0 0 397.13281,244.79688 L 312.75977,76.052734 h 1.77343 c 8.21852,0 14.83594,-6.617421 14.83594,-14.835937 V 33.375 c 0,-8.218516 -6.61742,-14.835937 -14.83594,-14.835938 z m 26.45117,57.513672 h 73.96679 l 88.99219,194.912106 c 38.57422,20.89623 60.51125,50.26884 60.52735,81.03907 6e-4,60.99771 -84.44894,110.44529 -188.62305,110.44531 -104.17411,-1e-5 -188.623649,-49.4476 -188.623048,-110.44531 0.129733,-32.79826 25.148247,-63.86765 68.281248,-84.79297 z m 31.13281,24.779296 a 30.610434,31.245031 0 0 0 -30.61133,31.24609 30.610434,31.245031 0 0 0 30.61133,31.24415 30.610434,31.245031 0 0 0 30.60938,-31.24415 30.610434,31.245031 0 0 0 -30.60938,-31.24609 z m 44.99024,102.64258 a 35.638016,33.588135 0 0 0 -35.63868,33.58789 35.638016,33.588135 0 0 0 35.63868,33.58789 35.638016,33.588135 0 0 0 35.63671,-33.58789 35.638016,33.588135 0 0 0 -35.63671,-33.58789 z m -108.38086,60.49805 a 26.406879,26.57983 0 0 0 -26.40821,26.58007 26.406879,26.57983 0 0 0 26.40821,26.58008 26.406879,26.57983 0 0 0 26.40625,-26.58008 26.406879,26.57983 0 0 0 -26.40625,-26.58007 z m -99.630864,96.86523 c 9.634842,47.54245 80.594814,84.46484 166.751954,84.46484 86.15714,-10e-6 157.11711,-36.92239 166.75195,-84.46484 z" /></g><g
     inkscape:groupmode="layer"
     id="layer2"
     inkscape:label="Layer 2"
     style="display:inline"><path
       style="opacity:1;fill:none;stroke:#3178c6;stroke-width:27.78;stroke-linecap:round;stroke-linejoin:miter;stroke-miterlimit:10;stroke-dasharray:none;stroke-opacity:1"
       d="M 251.8258,476.11943 H 80.803704 L 48.066544,355.1037 192.00603,171.58069 V 19.235398 h 59.81977 59.81977 V 171.58069 L 455.58506,355.1037 422.8479,476.11943 H 251.8258"
       id="path2"
       sodipodi:nodetypes="cccccc"
       inkscape:original-d="M 251.8258,476.11943 H 80.803704 L 48.066544,355.1037 192.00603,171.58069 V 19.235398 h 88.23043"
       inkscape:path-effect="#path-effect2" /><path
       style="opacity:1;fill:#3178c6;fill-opacity:1;stroke:#3178c6;stroke-width:30.98;stroke-linecap:round;stroke-linejoin:miter;stroke-miterlimit:10;stroke-dasharray:none;stroke-opacity:1"
       d="M 251.8258,501.43877 H 69.169624 l -22.65289,-95.45822 54.834306,-67.13115 150.47476,1.98776 150.47476,-1.98776 54.83431,67.13115 -22.65289,95.45822 z"
       id="path3"
       sodipodi:nodetypes="ccccc"
       transform="matrix(0.66579472,0,0,0.66579472,84.161512,91.882604)"
       inkscape:original-d="M 251.8258,501.43877 H 69.169624 l -22.65289,-95.45822 54.834306,-67.13115 270.95021,3.57924"
       inkscape:path-effect="#path-effect4" /></g></svg>

<?xml version="1.0" encoding="UTF-8" standalone="no"?>
<!-- Created with Inkscape (http://www.inkscape.org/) -->

<svg
   width="500"
   height="500"
   viewBox="0 0 500 500"
   version="1.1"
   id="svg1"
   inkscape:version="1.3.2 (091e20ef0f, 2023-11-25, custom)"
   sodipodi:docname="spec.ts.svg"
   xml:space="preserve"
   xmlns:inkscape="http://www.inkscape.org/namespaces/inkscape"
   xmlns:sodipodi="http://sodipodi.sourceforge.net/DTD/sodipodi-0.dtd"
   xmlns="http://www.w3.org/2000/svg"
   xmlns:svg="http://www.w3.org/2000/svg"><sodipodi:namedview
     id="namedview1"
     pagecolor="#505050"
     bordercolor="#eeeeee"
     borderopacity="1"
     inkscape:showpageshadow="0"
     inkscape:pageopacity="0"
     inkscape:pagecheckerboard="0"
     inkscape:deskcolor="#505050"
     inkscape:document-units="px"
     inkscape:zoom="0.7730394"
     inkscape:cx="134.53389"
     inkscape:cy="280.06334"
     inkscape:window-width="1362"
     inkscape:window-height="744"
     inkscape:window-x="0"
     inkscape:window-y="20"
     inkscape:window-maximized="1"
     inkscape:current-layer="layer1"
     showguides="true"><sodipodi:guide
       position="250.02518,350.60736"
       orientation="-0.99997769,0.0066803918"
       id="guide30"
       inkscape:locked="false" /><sodipodi:guide
       position="66.396728,247.89992"
       orientation="0,-1"
       id="guide53"
       inkscape:locked="false" /><sodipodi:guide
       position="221.35979,127.71308"
       orientation="0,-1"
       id="guide5"
       inkscape:locked="false" /><sodipodi:guide
       position="96.959247,117.65127"
       orientation="1,0"
       id="guide6"
       inkscape:locked="false" /><sodipodi:guide
       position="400.64293,118.56598"
       orientation="1,0"
       id="guide7"
       inkscape:locked="false" /></sodipodi:namedview><defs
     id="defs1"><linearGradient
       id="swatch61"
       inkscape:swatch="solid"><stop
         style="stop-color:#5090d0;stop-opacity:1;"
         offset="0"
         id="stop61" /></linearGradient><linearGradient
       id="swatch30"
       inkscape:swatch="solid"><stop
         style="stop-color:#f9f9f9;stop-opacity:1;"
         offset="0"
         id="stop30" /></linearGradient><inkscape:perspective
       sodipodi:type="inkscape:persp3d"
       inkscape:vp_x="44.06818 : 315.96746 : 1"
       inkscape:vp_y="0 : 1000 : 0"
       inkscape:vp_z="480.74134 : 298.68846 : 1"
       inkscape:persp3d-origin="250 : 166.66667 : 1"
       id="perspective17" /><inkscape:perspective
       sodipodi:type="inkscape:persp3d"
       inkscape:vp_x="44.06818 : 315.96746 : 1"
       inkscape:vp_y="0 : 1000 : 0"
       inkscape:vp_z="480.74134 : 298.68846 : 1"
       inkscape:persp3d-origin="250 : 166.66667 : 1"
       id="perspective17-2" /><inkscape:perspective
       sodipodi:type="inkscape:persp3d"
       inkscape:vp_x="44.06818 : 315.96746 : 1"
       inkscape:vp_y="0 : 1000 : 0"
       inkscape:vp_z="480.74134 : 298.68846 : 1"
       inkscape:persp3d-origin="250 : 166.66667 : 1"
       id="perspective17-0" /></defs><g
     inkscape:label="Layer 1"
     inkscape:groupmode="layer"
     id="layer1"><path
       id="path1"
       style="opacity:1;fill:#3178c6;stroke-width:33.2;stroke-linejoin:bevel;paint-order:markers fill stroke;fill-opacity:1"
       d="M 187.34766 18.539062 C 179.12913 18.539062 172.51172 25.156484 172.51172 33.375 L 172.51172 61.216797 C 172.51172 69.435313 179.12913 76.052734 187.34766 76.052734 L 191.16406 76.052734 L 109.17773 240.02539 A 218.62701 140.39372 0 0 0 30.035156 347.80859 A 218.62701 140.39372 0 0 0 248.66211 488.20312 A 218.62701 140.39372 0 0 0 467.28906 347.80859 A 218.62701 140.39372 0 0 0 397.13281 244.79688 L 312.75977 76.052734 L 314.5332 76.052734 C 322.75172 76.052734 329.36914 69.435313 329.36914 61.216797 L 329.36914 33.375 C 329.36914 25.156484 322.75172 18.539063 314.5332 18.539062 L 187.34766 18.539062 z M 213.79883 76.052734 L 287.76562 76.052734 L 376.75781 270.96484 C 415.33203 291.86107 437.26906 321.23368 437.28516 352.00391 C 437.28576 413.00162 352.83622 462.4492 248.66211 462.44922 C 144.488 462.44921 60.038461 413.00162 60.039062 352.00391 C 60.168795 319.20565 85.187309 288.13626 128.32031 267.21094 L 213.79883 76.052734 z M 244.93164 100.83203 A 30.610434 31.245031 0 0 0 214.32031 132.07812 A 30.610434 31.245031 0 0 0 244.93164 163.32227 A 30.610434 31.245031 0 0 0 275.54102 132.07812 A 30.610434 31.245031 0 0 0 244.93164 100.83203 z M 289.92188 203.47461 A 35.638016 33.588135 0 0 0 254.2832 237.0625 A 35.638016 33.588135 0 0 0 289.92188 270.65039 A 35.638016 33.588135 0 0 0 325.55859 237.0625 A 35.638016 33.588135 0 0 0 289.92188 203.47461 z M 181.54102 263.97266 A 26.406879 26.57983 0 0 0 155.13281 290.55273 A 26.406879 26.57983 0 0 0 181.54102 317.13281 A 26.406879 26.57983 0 0 0 207.94727 290.55273 A 26.406879 26.57983 0 0 0 181.54102 263.97266 z M 81.910156 360.83789 C 91.544998 408.38034 162.50497 445.30273 248.66211 445.30273 C 334.81925 445.30272 405.77922 408.38034 415.41406 360.83789 L 81.910156 360.83789 z " /></g></svg>
